resources/svg/head-side-cough-o.svg

<svg xmlns="http://www.w3.org/2000/svg" data-name="Layer 1" viewBox="0 0 24 24" fill="currentColor" stroke="none"><path d="M4.29291,20.29291a1,1,0,1,0,1.41418,0A.99988.99988,0,0,0,4.29291,20.29291Zm-3-3a1,1,0,1,0,1.41418,0A.99988.99988,0,0,0,1.29291,17.29291Zm4-1.00073a1,1,0,1,0,1.41418,0A.99988.99988,0,0,0,5.29291,16.29218ZM16.15039,2.00342a7.06726,7.06726,0,0,0-7.28418,7.063V9.082L7.0957,12.84033A.99943.99943,0,0,0,8,14.2666h.86621v1.79981A1.9355,1.9355,0,0,0,10.7998,18H11.667v1.7998a1,1,0,0,0,2,0V17.98639A.99416.99416,0,0,0,13.59961,16l-.8324.0202A.94008.94008,0,0,0,12.667,16a.94011.94011,0,0,0-.12756.02576l-1.67322.04065V13.2666a.99974.99974,0,0,0-1-1H9.57715l1.20508-2.55908a.99032.99032,0,0,0,.09472-.46729c0-.01074-.00976-.16259-.01074-.17382A5.02527,5.02527,0,0,1,12.4043,5.43066a5.09178,5.09178,0,0,1,3.68554-1.42822A5.23852,5.23852,0,0,1,21,9.32129l-1.833,6.9873a1.0083,1.0083,0,0,0,.00586.53321l.93262,3.23486a1.00046,1.00046,0,0,0,.96094.72363,1.01739,1.01739,0,0,0,.27734-.03955.99991.99991,0,0,0,.68359-1.23779l-.85644-2.96924,1.7959-6.76416A1.03147,1.03147,0,0,0,23,9.5332V9.32129A7.25231,7.25231,0,0,0,16.15039,2.00342Z"/></svg>

<svg xmlns="http://www.w3.org/2000/svg" data-name="Layer 1" viewBox="0 0 24 24" fill="currentColor" stroke="none"><path d="M4.293 20.293a1 1 0 1 0 1.414 0 1 1 0 0 0-1.414 0Zm-3-3a1 1 0 1 0 1.414 0 1 1 0 0 0-1.414 0Zm4-1a1 1 0 1 0 1.414 0 1 1 0 0 0-1.414 0ZM16.15 2.002a7.067 7.067 0 0 0-7.284 7.063v.016l-1.77 3.758A1 1 0 0 0 8 14.267h.866v1.8A1.935 1.935 0 0 0 10.8 18h.867v1.8a1 1 0 0 0 2 0v-1.814A.994.994 0 0 0 13.6 16l-.833.02a.94.94 0 0 0-.1-.02.94.94 0 0 0-.128.026l-1.673.04v-2.8a1 1 0 0 0-1-1h-.289l1.205-2.558a.99.99 0 0 0 .095-.468l-.01-.174a5.025 5.025 0 0 1 1.537-3.635 5.092 5.092 0 0 1 3.686-1.429A5.239 5.239 0 0 1 21 9.322l-1.833 6.987a1.008 1.008 0 0 0 .006.533l.932 3.235a1 1 0 0 0 .961.723 1.017 1.017 0 0 0 .278-.04 1 1 0 0 0 .683-1.237l-.856-2.97 1.796-6.763A1.031 1.031 0 0 0 23 9.533v-.212a7.252 7.252 0 0 0-6.85-7.318Z"/></svg>
